X: 34989
T: Rodney's Glory
R: hornpipe
M: 4/4
K: Adorian
|:ed|c2 Bc ABcA|BGEF G2 Bd|efed cdef|gfge dfed|
c2 Bc ABcA|BGEF G2 ed|c2 BA GA(3BAG|A2 AG A2:|
|:Bd|eaab aged|efed c2 A2|g2 fg aged|c2AD G2 F2|
AGAB cBcd|ed(3efg (a2a)b|aged cdef|fgge dfed|
c2 Bc ABcA|BGEF G2 ed|c2 BA GA(3BAG|A2 AG A2:|

